src/icons/SVG/64px/Service_Delivery_Delivery--Locker_64px.svg

<svg width="64" height="64" viewBox="0 0 64 64" fill="none" xmlns="http://www.w3.org/2000/svg">
  <g id="Square"> </g>
  <g id="Icon">
<path id="Union" fill-rule="evenodd" clip-rule="evenodd" d="M8 39V30H20V39H8ZM20 20V28H8V20H20ZM20 8V18H8V8H20ZM22 5H20H7C5.89543 5 5 5.89543 5 7V57C5 58.1046 5.89543 59 7 59H20H22H42H44H57C58.1046 59 59 58.1046 59 57V7C59 5.89543 58.1046 5 57 5H44H42H22ZM42 8H22V39H42V8ZM42 41H22V56H42V41ZM44 56V41H56V56H44ZM44 39V30H56V39H44ZM44 28H56V19H44V28ZM44 17H56V8H44V17ZM20 56V41H8V56H20ZM36 19H28V27H36V19ZM28 17C26.8954 17 26 17.8954 26 19V27V29C26 30.1046 26.8954 31 28 31H36C37.1046 31 38 30.1046 38 29V27V19C38 17.8954 37.1046 17 36 17H28Z" fill="black"/>
</g>
</svg>

<svg xmlns="http://www.w3.org/2000/svg" viewBox="0 0 64 64">
  <g id="Square"> </g>
  <path fill-rule="evenodd" d="M8 39v-9h12v9H8zm12-19v8H8v-8h12zm0-12v10H8V8h12zm2-3H7a2 2 0 00-2 2v50a2 2 0 002 2h50a2 2 0 002-2V7a2 2 0 00-2-2H22zm20 3H22v31h20V8zm0 33H22v15h20V41zm2 15V41h12v15H44zm0-17v-9h12v9H44zm0-11h12v-9H44v9zm0-11h12V8H44v9zM20 56V41H8v15h12zm16-37h-8v8h8v-8zm-8-2a2 2 0 00-2 2v10a2 2 0 002 2h8a2 2 0 002-2V19a2 2 0 00-2-2h-8z"/>
</svg>
